public/icons/basic-package-icon.svg

<svg width="18" height="19" viewBox="0 0 18 19" fill="none" xmlns="http://www.w3.org/2000/svg">
<path d="M3.75 4.17493H11.25C12.4926 4.17493 13.5 5.18229 13.5 6.42493V8.94944C13.4386 8.94156 13.376 8.9375 13.3125 8.9375C12.5071 8.9375 11.8542 9.59042 11.8542 10.3958V11.3375C11.2098 11.3375 10.6875 11.8598 10.6875 12.5042V13.7749H8.43754V14.45H9.375C9.78921 14.45 10.125 14.7857 10.125 15.2C10.125 15.6142 9.78921 15.95 9.375 15.95H6C5.58579 15.95 5.25 15.6142 5.25 15.2C5.25 14.7857 5.58579 14.45 6 14.45H6.93754V13.7749H3.75C2.50736 13.7749 1.5 12.7676 1.5 11.5249V6.42493C1.5 5.18229 2.50736 4.17493 3.75 4.17493Z" fill="#475367"/>
<path fill-rule="evenodd" clip-rule="evenodd" d="M11.25 14.5V12.7417C11.25 12.0973 11.7723 11.575 12.4167 11.575V10.9583C12.4167 10.1529 13.0696 9.5 13.875 9.5C14.6804 9.5 15.3333 10.1529 15.3333 10.9583V11.575C15.9777 11.575 16.5 12.0973 16.5 12.7417V14.5C16.5 14.9142 16.1642 15.25 15.75 15.25H12C11.5858 15.25 11.25 14.9142 11.25 14.5ZM13.875 10.4375C14.0821 10.4375 14.25 10.6054 14.25 10.8125V11.4875H13.5V10.8125C13.5 10.6054 13.6679 10.4375 13.875 10.4375Z" fill="#475367"/>
</svg>

<svg xmlns="http://www.w3.org/2000/svg" width="18" height="19" fill="none"><path fill="#475367" d="M3.75 4.175h7.5a2.25 2.25 0 0 1 2.25 2.25v2.524a1.458 1.458 0 0 0-1.646 1.446v.943c-.644 0-1.166.522-1.166 1.166v1.27h-2.25v.676h.937a.75.75 0 1 1 0 1.5H6a.75.75 0 0 1 0-1.5h.938v-.675H3.75a2.25 2.25 0 0 1-2.25-2.25v-5.1a2.25 2.25 0 0 1 2.25-2.25"/><path fill="#475367" fill-rule="evenodd" d="M11.25 14.5v-1.758c0-.645.522-1.167 1.167-1.167v-.617a1.458 1.458 0 1 1 2.916 0v.617c.645 0 1.167.522 1.167 1.167V14.5a.75.75 0 0 1-.75.75H12a.75.75 0 0 1-.75-.75m2.625-4.062c.207 0 .375.167.375.374v.676h-.75v-.675c0-.208.168-.376.375-.376" clip-rule="evenodd"/></svg>
